X:151
%%pagewidth 8.5in
%%vocalfont Baskerville10Pro 13
T:Cherrily and merrily
M:3/4
L:1/8
K:Eb
%%score 1 2
V:1 clef-treble
V:2 clef-bass octave=-1
V:1
BA&[B,F]2|[B,(G]2E2)(FG)|[C(F]2C2)D2|E4E2|g4f2|
w:Sweet* day,* so* cool,* so calm, so bright, The
V:2
D2|E6|A,4A2&x4B,2|G4G2&C4C2|[CE=A]4[CEA]2|
V:1
(f2d2)B2|[G(c]dc2)G2|(B2>d2) [E=A(c]d)|[DB]4[DFB]2|(B3c) (de)&E6|(c2B2)G2&E6|
w:bri-*dal of** the earth* and* sky, The dews* shall* weep* thy
V:2
[DFB]4G2|E6|F4F2|B4B_A|G6|A2G2E2|
V:1
(F3G) ([FA]B)&C2x4|[DAc]4[DAB]2|[E(B]2G2)E2|[C(F]GF2)C2|(E3G) [D(F]G)|E4||
w:fall* to-*night, For thou,* with all** thy sweets,* must* die.
V:2
A4A2|F,4F,2|G,4C2|A,6|G4A2&B,4B,2|G4&E4||

